X: 17956
T: Hubert Cumberdale's
R: barndance
M: 4/4
K: Gmajor
|:G2 AG Bd d2|e2 gd edBA|G2 AG Bdeg|a2 ab afed|
G2 AG Bd d2|e2 gd egab|c'2 ba gedc|1 BdAB GDEF:|2 BdAB GABc||
|:"G"d2 de "G/F#"d2 de|"G/e"dBde "G/d"dBAG|"c"e2 ef "c/B#"e2 ef|"c/A"edef "c/G"edBc|
"G"d2 de "G/F#"d2 de|"G/e"dBde "G/d"dBAG|"c"cdef gedc|1 BdAB GABc:|2 BdAB G4||

